app/images/Chat.svg

<svg width="80" height="79" viewBox="0 0 80 79" fill="none" xmlns="http://www.w3.org/2000/svg">
<path fill-rule="evenodd" clip-rule="evenodd" d="M40.0023 7.19809C48.8323 7.19809 57.3323 10.6244 63.5657 16.759C69.8323 22.8969 73.3357 31.1819 73.3357 39.8618C73.3357 51.2827 67.199 61.8878 57.199 67.794C47.199 73.7002 34.7657 74.0265 24.4357 68.6424H24.3323C23.7618 68.4182 23.2546 68.0978 22.7501 67.7791C22.3733 67.5411 21.998 67.304 21.599 67.1087C20.569 66.6845 19.399 66.6193 18.3357 66.9488C15.8657 67.794 13.3657 68.4792 10.799 69.0666C9.46567 69.0992 9.06567 68.3161 9.06567 67.0435C9.66567 64.4656 10.4657 61.9171 11.4023 59.4404C11.7657 58.3636 11.669 57.2215 11.1023 56.2067L10.4357 54.9373C7.96567 50.3364 6.66901 45.2133 6.66901 40.0282V39.8292C6.66901 31.1819 10.1657 22.861 16.4323 16.759C22.699 10.6244 31.1657 7.19809 40.0023 7.19809ZM24.6323 44.0386C22.2657 44.0386 20.3657 42.146 20.3657 39.8618C20.3657 37.545 22.2657 35.685 24.6323 35.685C26.9657 35.685 28.9023 37.545 28.9023 39.8618C28.9023 42.146 26.9657 44.0386 24.6323 44.0386ZM35.7323 39.8618C35.7323 42.146 37.6357 44.0386 40.0023 44.0386C42.369 44.0386 44.2657 42.146 44.2657 39.8618C44.2657 37.545 42.369 35.685 40.0023 35.685C37.6357 35.685 35.7323 37.545 35.7323 39.8618ZM51.1023 39.8618C51.1023 42.146 53.0323 44.0386 55.3657 44.0386C57.7323 44.0386 59.6323 42.146 59.6323 39.8618C59.6323 37.545 57.7323 35.685 55.3657 35.685C53.0323 35.685 51.1023 37.545 51.1023 39.8618Z" fill="#292D32"/>
</svg>

<svg xmlns="http://www.w3.org/2000/svg" width="80" height="79" fill="none"><path fill="#292D32" fill-rule="evenodd" d="M40.002 7.198c8.83 0 17.33 3.426 23.564 9.561 6.266 6.138 9.77 14.423 9.77 23.103 0 11.42-6.137 22.026-16.137 27.932-10 5.906-22.433 6.233-32.763.848h-.104c-.57-.224-1.077-.544-1.582-.863-.377-.238-.752-.475-1.151-.67a4.858 4.858 0 0 0-3.263-.16c-2.47.845-4.97 1.53-7.537 2.118-1.333.032-1.733-.75-1.733-2.023.6-2.578 1.4-5.127 2.336-7.604a3.947 3.947 0 0 0-.3-3.233l-.666-1.27a31.534 31.534 0 0 1-3.767-14.909v-.199a32.198 32.198 0 0 1 9.763-23.07c6.267-6.135 14.734-9.56 23.57-9.56Zm-15.37 36.84c-2.366 0-4.266-1.892-4.266-4.176 0-2.317 1.9-4.177 4.266-4.177 2.334 0 4.27 1.86 4.27 4.177 0 2.284-1.936 4.177-4.27 4.177Zm11.1-4.176c0 2.284 1.904 4.177 4.27 4.177 2.367 0 4.264-1.893 4.264-4.177 0-2.317-1.897-4.177-4.264-4.177-2.366 0-4.27 1.86-4.27 4.177Zm15.37 0c0 2.284 1.93 4.177 4.264 4.177 2.366 0 4.266-1.893 4.266-4.177 0-2.317-1.9-4.177-4.266-4.177-2.334 0-4.264 1.86-4.264 4.177Z" clip-rule="evenodd"/></svg>
